Origami/32x32/apps/curlew.svg

<svg width="32" height="32" version="1" xmlns="http://www.w3.org/2000/svg">
 <path d="M 3.4003906,3 C 2.6247906,3 2,3.6247906 2,4.4003906 L 2,27.5 c 0,0.004 0.00192,0.0077 0.00195,0.01172 L 2,29.658203 C 2,30.403564 2.6042251,31 3.3496094,31 L 28.650391,31 C 29.395769,31 30,30.403564 30,29.658203 L 30,27.503906 30,27.5 30,4.4003906 C 30,3.6247906 29.375209,3 28.599609,3 L 3.4003906,3 Z" style="opacity:.2"/>
 <path d="m30 26.5v-23.1c0-0.7756-0.6244-1.4-1.4-1.4h-25.2c-0.7756 0-1.4 0.6244-1.4 1.4v23.1c0 0.7756 0.6244 1.4 1.4 1.4h25.2c0.7756 0 1.4-0.6244 1.4-1.4z" style="fill:#4ab1f1"/>
 <path d="m2 28.658789c0 0.745361 0.6040298 1.341211 1.3494141 1.341211h25.301172c0.745378 0 1.349414-0.59585 1.349414-1.341211l-0.0027-8.658789c-0.584303 0.292557-1.511456 1.312133-1.781445 1.466016-0.756912 0.431575-1.560424 0.170375-2.004297 1.182617-0.164117 0.374302-0.01111 1.151551-0.375558 1.213467-0.635776 0.108008-2.836 0.0378-3.140879 0.2478-1.385669 0.78998-3.085983 1.243484-4.614258 1.679162-0.292179 0.08327-0.759097 1.014613-1.059863 1.128938-1.4216 0.540322-3.338513-0.918-4.806738-0.918-1.921375 0-5.314262 1.899539-7.240625 0.572-0.8414526-1.171137-1.6947373-1.450234-2.9709027-1.572z" style="fill:#4d4d4d"/>
 <path d="m12.390943 26.105657c-0.618075-0.305899-0.739599-0.810297-0.470685-0.976489 0.328118-0.202876 0.140377-1.381581-0.431206-2.707388-0.561863-1.303276-0.569517-1.343374-0.311196-1.631582 0.602983-0.672781 0.571785-0.710471-0.502118-0.606589-2.9820234 0.288331-3.0859083 0.781448-4.1149951 1.208894-1.3553204 0.562928-2.5761033 0.757921-2.5761033 0.600549 0-0.06671 0.1792215-0.171597 0.3982707-0.233024l0.3982707-0.111548-0.4222976-0.085184c-0.4211306-0.08482-0.4199291-0.08663 0.434477-0.650348 2.5141438-2.553511 4.8118495-5.619886 8.1017246-7.347745 0.411993-0.20878 0.883462-0.520217 0.984113-0.741122 0.09548-0.209556 0.173605-1.288677 0.173605-2.030898 0-1.5733796 0.253875-2.4114525 1.204834-2.6963665 0.742363-0.0968165 0.618536-0.1407399 1.279948 0.2704093 0.440604 0.2738918 1.004121 1.098103 1.485851 1.157813 1.920069 0.2380042 3.711605 0.9709342 4.012577 1.4579222 0.05424 0.08775-0.09068 0.06166-0.322026-0.05798-1.253173-0.648048-3.887474-1.0901016-4.816563-0.649222-0.759952 0.360622-0.309429 0.688813-0.04049 2.216223 0.364788 2.071793 0.108008 3.72572-0.753873 4.855702-0.207105 0.271549-0.770504 0.783725-1.252001 1.138247-0.481497 0.354475-1.470213 0.808015-1.573917 1.007943-0.103704 0.199853-0.314277 0.523295-0.46794 0.718653-0.240294 0.305505-0.281528 0.611379-0.294694 2.186376-0.0096 1.153938 0.0443 1.902985 0.14587 2.025394 0.08865 0.106732 0.120727 0.355309 0.07129 0.552386-0.100907 0.401944 0.497638 0.999488 1.096615 0.999488 0.189148 0 0.470412 0.09555 0.625031 0.212532 0.259413 0.196242 0.225195 0.213023-0.443003 0.217126-0.452278 0.0044-1.234932-0.109902-1.619369-0.300172zm-0.340166-4.126508c-0.0078-0.258921 0.03343-0.747622 0.09157-1.086199 0.118743-0.691429-0.06353-0.820324-0.364605-0.25774-0.226922 0.423982-0.230111 1.099416-0.0072 1.516028 0.223757 0.417988 0.296569 0.373319 0.280195-0.172089z" style="fill:#4d4d4d"/>
 <path d="M 3.4003906 2 C 2.6247906 2 2 2.6247906 2 3.4003906 L 2 4.4003906 C 2 3.6247906 2.6247906 3 3.4003906 3 L 28.599609 3 C 29.375209 3 30 3.6247906 30 4.4003906 L 30 3.4003906 C 30 2.6247906 29.375209 2 28.599609 2 L 3.4003906 2 z" style="fill:#ffffff;opacity:.1"/>
</svg>

<svg xmlns="http://www.w3.org/2000/svg" width="32" height="32" version="1">
 <path style="opacity:0.2" d="M 3.4003906,3 C 2.6247906,3 2,3.6247906 2,4.4003906 L 2,27.5 c 0,0.004 0.00192,0.0077 0.00195,0.01172 L 2,29.658203 C 2,30.403564 2.6042251,31 3.3496094,31 L 28.650391,31 C 29.395769,31 30,30.403564 30,29.658203 L 30,27.503906 30,27.5 30,4.4003906 C 30,3.6247906 29.375209,3 28.599609,3 L 3.4003906,3 Z"/>
 <path style="fill:#4ab1f1" d="M 30,26.5 30,3.4 C 30,2.6244 29.3756,2 28.6,2 L 3.4,2 C 2.6244,2 2,2.6244 2,3.4 l 0,23.1 c 0,0.7756 0.6244,1.4 1.4,1.4 l 25.2,0 c 0.7756,0 1.4,-0.6244 1.4,-1.4 z"/>
 <path style="fill:#4d4d4d" d="M 2,28.658789 C 2,29.40415 2.6040298,30 3.3494141,30 L 28.650586,30 C 29.395964,30 30,29.40415 30,28.658789 L 29.9973,20 c -0.584303,0.292557 -1.511456,1.312133 -1.781445,1.466016 -0.756912,0.431575 -1.560424,0.170375 -2.004297,1.182617 -0.164117,0.374302 -0.01111,1.151551 -0.375558,1.213467 -0.635776,0.108008 -2.836,0.0378 -3.140879,0.2478 -1.385669,0.78998 -3.085983,1.243484 -4.614258,1.679162 C 17.788684,25.872332 17.321766,26.803675 17.021,26.918 15.5994,27.458322 13.682487,26 12.214262,26 10.292887,26 6.9,27.899539 4.973637,26.572 4.1321844,25.400863 3.2788997,25.121766 2.0027343,25 Z"/>
 <path style="fill:#4d4d4d" d="m 12.390943,26.105657 c -0.618075,-0.305899 -0.739599,-0.810297 -0.470685,-0.976489 0.328118,-0.202876 0.140377,-1.381581 -0.431206,-2.707388 -0.561863,-1.303276 -0.569517,-1.343374 -0.311196,-1.631582 0.602983,-0.672781 0.571785,-0.710471 -0.502118,-0.606589 -2.9820234,0.288331 -3.0859083,0.781448 -4.1149951,1.208894 -1.3553204,0.562928 -2.5761033,0.757921 -2.5761033,0.600549 0,-0.06671 0.1792215,-0.171597 0.3982707,-0.233024 L 4.781181,21.64848 4.3588834,21.563296 c -0.4211306,-0.08482 -0.4199291,-0.08663 0.434477,-0.650348 2.5141438,-2.553511 4.8118495,-5.619886 8.1017246,-7.347745 0.411993,-0.20878 0.883462,-0.520217 0.984113,-0.741122 0.09548,-0.209556 0.173605,-1.288677 0.173605,-2.030898 0,-1.5733796 0.253875,-2.4114525 1.204834,-2.6963665 C 16,8 15.876173,7.9560766 16.537585,8.3672258 c 0.440604,0.2738918 1.004121,1.098103 1.485851,1.157813 1.920069,0.2380042 3.711605,0.9709342 4.012577,1.4579222 0.05424,0.08775 -0.09068,0.06166 -0.322026,-0.05798 -1.253173,-0.648048 -3.887474,-1.0901016 -4.816563,-0.649222 -0.759952,0.360622 -0.309429,0.688813 -0.04049,2.216223 0.364788,2.071793 0.108008,3.72572 -0.753873,4.855702 -0.207105,0.271549 -0.770504,0.783725 -1.252001,1.138247 -0.481497,0.354475 -1.470213,0.808015 -1.573917,1.007943 -0.103704,0.199853 -0.314277,0.523295 -0.46794,0.718653 -0.240294,0.305505 -0.281528,0.611379 -0.294694,2.186376 -0.0096,1.153938 0.0443,1.902985 0.14587,2.025394 0.08865,0.106732 0.120727,0.355309 0.07129,0.552386 -0.100907,0.401944 0.497638,0.999488 1.096615,0.999488 0.189148,0 0.470412,0.09555 0.625031,0.212532 0.259413,0.196242 0.225195,0.213023 -0.443003,0.217126 -0.452278,0.0044 -1.234932,-0.109902 -1.619369,-0.300172 z m -0.340166,-4.126508 c -0.0078,-0.258921 0.03343,-0.747622 0.09157,-1.086199 0.118743,-0.691429 -0.06353,-0.820324 -0.364605,-0.25774 -0.226922,0.423982 -0.230111,1.099416 -0.0072,1.516028 0.223757,0.417988 0.296569,0.373319 0.280195,-0.172089 z"/>
 <path style="fill:#ffffff;opacity:0.1" d="M 3.4003906 2 C 2.6247906 2 2 2.6247906 2 3.4003906 L 2 4.4003906 C 2 3.6247906 2.6247906 3 3.4003906 3 L 28.599609 3 C 29.375209 3 30 3.6247906 30 4.4003906 L 30 3.4003906 C 30 2.6247906 29.375209 2 28.599609 2 L 3.4003906 2 z"/>
</svg>
